X: 1
T: The New Bouzouki
C: Sean Wahl
L: 1/8
M: 4/4
K: Ddor
|: "D,no3"cBAE "F/C"FADA     | "D,no3/A"cBAF "G"G2G2   | "D,no3"cBAE "F/C"FABc | "D,no3/A"fed^c     "D,no3"d2d2 :|
|  "D,no3"Bcde "Gsus2/C"fdec | "G"BcdB       "C/G"c2c2 | "D,no3"Bcde "F/C"fdge | "D,no3/A"fe"C/G"dc "D,no3"d2d2  |
|  "D,no3"Bcde "Gsus2/C"fdec | "G"BcdB       "C/G"c2c2 | "D,no3"cBAE "F/C"FABc | "D,no3/A"fed^c     "D,no3"d2d2  |
|  "D,no3"fedg "F/C"fefe     | "D,no3/A"fedB "C/G"c2c2 | "D,no3"fedg "F/C"fedA | "G"Bc"C/G"de       "D,no3"d2d2  |
|  "D,no3"fedf edgd          | "G"BcdB       "C/G"c2c2 | "D,no3"cBAE "F/C"FABc | "D,no3/A"fed^c     "D,no3"d2d2  |
